X: 1038
T: Hicaz-Hümâyûn Sazsemâîsi
C: Veli Dede
O: Turkey
F: http://compmusic.upf.edu/node/140
N: hicaz-humayun--sazsemaisi--aksaksemai----veli_dede
N: makam= hicaz-humayun
N: form= sazsemaisi
N: usul= aksaksemai = 10/8
M: 10/8
L: 1/16
K: C _7/8B ^c  
Q: 1/4=108
%%MIDI tuningsystem comma53
d4 fed3fe2 d2ed c2B2  | c4 Bcde dcBc BAdc BAG2  | 
w:  1. HANE  |   | 
d4 c2d6 cdc4d2  | e2d2 efed dcc=B Bcd4z2  | 
w:   |   | 
d4 dcd4ed dccB BAB2  | cdc2 B2cd cdcB BAB4z2  | 
w:  TESLİM  |   | 
cdcd e^fg2 =feed dfed cBAe  | d2cB A2BA BcBA ^G2A4z2  | 
w:   |   | 
d4 dcd4ed dccB BAB2  | cdc2 B2cd cdcB BAB4z2  | 
w:  TESLİM  |   | 
cdcd e^fg2 =feed dfed cBAe  | d2cB A2BA BcBA ^G2A4z2  | 
w:   |   | 
|


